X:1
T:Title
%%score { 1 | ( 2 3 ) }
L:1/8
M:9/8
K:Eb
V:1 treble nm="Grand Piano"
V:2 bass 
V:3 bass 
V:1
 z3 z3 z2[Q:1/4=100] E | G2 G G3- G[FA][GB] | [Ac]2 [GB] [GB]3- [GB]2 [GB] | [Ge]3- [Ge]GG GFE | %4
 [DF]6- [DF]2 E | G2 G G3- G[FA][GB] | [Ac][GB][_G=A] [=GB]3 [GB]2 [GB] | =A2 A A3 [Ae]3 | %8
 [Ad]6 B2 B | [Ge]2 e e3- edc | [GB]2 [Ge] [GB]3- [GB]EF | G2 [Ec] [EB]3- [EB][EG]E | %12
[M:4/4] [DF]2 EE- E4 |[M:1/8] B |[M:9/8] [Ec]2 [Ec] [Ec]3- [Ec][Ed][Ae] | %15
 [Ge]2 [GB] [GB]3- [GB][B,EG][B,EG] | [DFB]3- [DFB]2 [DF] [DF][EG][FA] |[M:3/4] [EG]6 | %18
[M:3/8] [EB]3 |[M:9/8] [Ec]2 [Ec] [Ec]3- [Ec][Ed][Ae] | [Ge]2 [GB] [GB]3- [GB][B,EG][B,EG] | %21
 [EGB]3- [EGB][B,EG][G,E] [A,DF]2[K:bass] [E,G,B,E] |[M:4/4] [E,G,B,E]8 |] %23
V:2
 z3 z3 z2 [E,G,] | [E,B,E]2 [E,B,E] [E,B,E]3- [E,B,E][E,B,][E,E] | %2
 [E,E]2 [E,E] [E,E]3- [E,E]2 [E,E] | z3 z3 .B,3 | [B,,B,]6- [B,,B,]2 [E,G,] | %5
 [E,B,E]2 [E,B,E] [E,B,E]3- [E,B,E][E,B,][E,E] | [E,E][E,E][E,E] [E,E]3 [E,E]2 [E,E] | %7
 [F,EF]2 [F,EF] [F,EF]3 [F,C]3 | [B,,B,]6[K:treble] [B,A]2 [B,A] | %9
 [E,B,]2 [G,B,E][K:treble] [A,CA]3- [A,CA][A,CA][A,EA] | [E,E]2 [E,B,] [E,E]3- [E,E][E,G,][E,A,E] | %11
 [E,B,E]2 [B,,A,] [B,,G,]3- [B,,G,][B,,B,][B,,G,] |[M:4/4] [B,,A,]2 [E,G,B,][E,G,B,]- [E,G,B,]4 | %13
[M:1/8] [E,G,E] |[M:9/8] [A,,A,]2 [A,,A,] [A,,A,]3- [A,,A,][A,,B,][A,,C] | %15
 [E,B,]2 [E,E] [E,E]3- [E,E]E,E, | B,,3- B,,2 [B,,B,] [B,,B,][B,,B,][B,,B,] |[M:3/4] [E,B,]6 | %18
[M:3/8] [E,G,]3 |[M:9/8] [A,,A,]2 [A,,A,] [A,,A,]3- [A,,A,][A,,B,][A,,C] | %20
 [E,B,]2 [E,E] [E,E]3- [E,E]E,E, | B,,3- B,,B,,B,, B,,2 E,, |[M:4/4] E,,8 |] %23
V:3
 x9 | x9 | x9 | [E,B,]3- [E,B,][E,B,E][E,B,E] [E,E]-[E,A,E][E,G,] | x9 | x9 | x9 | x9 | %8
 x6[K:treble] x3 | x3[K:treble] x6 | x9 | x9 |[M:4/4] x8 |[M:1/8] x |[M:9/8] x9 | x9 | x9 | %17
[M:3/4] x6 |[M:3/8] x3 |[M:9/8] x9 | x9 | x9 |[M:4/4] x8 |] %23

